X:1
T:Title
%%score { ( 1 3 5 ) | ( 2 4 ) }
L:1/8
Q:1/4=90
M:6/8
K:Db
V:1 treble nm="Grand Piano"
V:3 treble 
V:5 treble 
V:2 bass 
V:4 bass 
V:1
 FFF F2 F | F3 ABc | [Fd]dd d2 d | ecB z DE | DFA B2 c | B3 A2 F | EA[Ac] [=Ge]2 [Ge] | [CA]6 | %8
w: Haldor~Lillenas * * * *||||||||
 [GA]3 [GA]3 | A3 z3 | [GA]3 [GA]3 | A6 | ddd _ccc |[M:7/8] BBB d3 B |[M:3/4] AF A G2 A | A6 | %16
w: ||||||||
[M:4/4][K:bass] z[K:treble] BB[DFB] z [FB][DFB][FB] | z BBB z BBB | DBBB z BBB | z ccc fedc | %20
w: ||||
 z BBB DB z B | z AAA DAAA | z c z c z B z B | ABcB AGFE |[M:6/8] FFF F2 F | F3 ABc | [Fd]dd d2 d | %27
w: |||||||
 ecB z DE | ddd d2 d | d3 e2 e | fdB A2 e | [Fd]6 | AAA A2 A |[M:15/16] B3 A3/2- A3 | %34
w: |||||||
[M:3/4] EE E E2 E | z2 z D3 | [Fd][Fd] [Fd] [Fd]2 [F_c] |[M:15/16] B3 =A3/2- A3 |[M:3/4] z2 z .A3 | %39
w: |||||
 [DFA]6 | AA A A2 A |[M:15/16] B3 A3/2- A3 |[M:3/4] EE E E2 E | z2 z D3 | %44
w: |||||
 [Fd][Fd] [Fd] [Fd]2 [F_c] |[M:15/16] B3 =A3/2- A3 |[M:3/4] z2 z .A3 | [DFA]6 |] %48
w: ||||
V:2
 [D,D][F,D][A,D] [B,D]2 [CD] | [B,D]3 [A,F]3 | D,[F,F][K:treble][A,F] [B,F]2 [DF] | %3
 [A,G]-[A,-EG-][A,DG-] [A,CG-][B,G-][CG] | z[K:bass] F,A, B,2 C | B,3 A,2 [D,A,D] | %6
 [E,A,C][E,CE][E,E] [E,B,]2 [E,D] | z3[K:treble] .G3 | A,CB, A,B,C | .F2 [CE] z[K:bass] A,D | %10
 A,CB, A,B,[K:treble]C | .[DF]2 [CE] .D3 | [DFA][DFA][DFA] [DFA][DFA][DFA] | %13
[M:7/8] [DG][DG]G [_F=GB]3 [FG] |[M:3/4] .F2 [A,DF] [A,CE]2 [CEG] | [DF]6 | %16
[M:4/4] z [DF][DF][K:bass]C, z D z D | z[K:treble] [DF][DF][DF] z [DF][DF][DF] | %18
 z [DF][DF][DF] z [DF][DF][DF] | z [F=A][FA][FA] AcBA | z [DG][DG][B,DG] z [DG] z [DG] | %21
 z [DF][DF][DF] z [DF][DF][DF] | z [EA] z [EA] z [D=G] z [DG] | .[CE]2 z2 z4 | %24
[M:6/8][K:bass] [D,D][F,D][A,D] [B,D]2 [CD] | [B,D]3 [A,F]3 | D,[F,F][K:treble][A,F] [B,F]2 [DF] | %27
 [A,G]-[A,-EG-][A,DG-] [A,CG-][B,G-][CG] | [DF][DF][DF] [_CDF]2 [CDF] | [B,DG]3 [=A,D=G]2 [A,DG] | %30
 [A,DA][B,DF][G,DG] [A,DF]2 [A,CG] | [D,D]6 | [DF][DF][DF] [DF]2 [DF] | %33
[M:15/16] [D_F=G]3 [CE_G]3/2- [CEG]3 | %34
[M:3/4][K:bass] [D,F,B,][D,F,B,] [D,F,B,] [D,F,B,]2 [F,A,B,] | [_F,=G,C]3 .[E,_G,B,]3 | %36
 [D,A,][D,A,] [D,A,] [D,A,]2 [D,D] |[M:15/16][K:treble] D3- [=G,DF]3/2- [G,DF]3 | %38
[M:3/4] [A,DF][A,DF] [A,DF][CE] D[K:bass]A,, | D,6 | [DF][DF] [DF] [DF]2 [DF] | %41
[M:15/16] [D_F=G]3 [CE_G]3/2- [CEG]3 | %42
[M:3/4][K:bass] [D,F,B,][D,F,B,] [D,F,B,] [D,F,B,]2 [F,A,B,] | [_F,=G,C]3 .[E,_G,B,]3 | %44
 [D,A,][D,A,] [D,A,] [D,A,]2 [D,D] |[M:15/16][K:treble] D3- [=G,DF]3/2- [G,DF]3 | %46
[M:3/4] [A,DF][A,DF] [A,DF][CE] D[K:bass]A,, | D,6 |] %48
V:3
 x6 | x6 | x6 | z3 A3 | x6 | x6 | x6 | x6 | CED CDE | z FG [FA]3 | CED CDE | z3 .F3 | x6 | %13
[M:7/8] x7 |[M:3/4] x6 | x6 |[M:4/4][K:bass] B,,4[K:treble] z4 | F,4 B,4 | z4 C2 z2 | C6 z2 | %20
 B,4 z2 B,2 | A,4 z4 | C2 E,2 B,2 E,2 | x8 |[M:6/8] x6 | x6 | x6 | z3 A3 | x6 | x6 | x6 | x6 | x6 | %33
[M:15/16] x15/2 |[M:3/4] x6 | E4 z A, | x6 |[M:15/16] x15/2 |[M:3/4] AA .A2 F[EGA] | x6 | x6 | %41
[M:15/16] x15/2 |[M:3/4] x6 | E4 z A, | x6 |[M:15/16] x15/2 |[M:3/4] AA .A2 F[EGA] | x6 |] %48
V:4
 x6 | x6 | x2[K:treble] x4 | .C3 z3 | x[K:bass] x5 | x6 | x6 | A,6[K:treble] | x6 | %9
 D3 .D3[K:bass] | x5[K:treble] x | x6 | x6 |[M:7/8] x7 |[M:3/4] x6 | x6 | %16
[M:4/4] z4[K:bass] D,2 E,2 | x[K:treble] x7 | z4 z2 B,2 | x8 | x8 | x8 | x8 | A,6 z2 | %24
[M:6/8][K:bass] x6 | x6 | x2[K:treble] x4 | .C3 z3 | x6 | x6 | x6 | x6 | x6 |[M:15/16] x15/2 | %34
[M:3/4][K:bass] x6 | x6 | x6 |[M:15/16][K:treble] [G,G]3 z3/2 z3 |[M:3/4] z2 z .A,3[K:bass] | x6 | %40
 x6 |[M:15/16] x15/2 |[M:3/4][K:bass] x6 | x6 | x6 |[M:15/16][K:treble] [G,G]3 z3/2 z3 | %46
[M:3/4] z2 z .A,3[K:bass] | x6 |] %48
V:5
 x6 | x6 | x6 | x6 | x6 | x6 | x6 | x6 | x6 | x6 | x6 | z FG z A,D | x6 |[M:7/8] x7 |[M:3/4] x6 | %15
 x6 |[M:4/4][K:bass] x[K:treble] x7 | x8 | x8 | x8 | x8 | x8 | x8 | x8 |[M:6/8] x6 | x6 | x6 | x6 | %28
 x6 | x6 | x6 | x6 | x6 |[M:15/16] x15/2 |[M:3/4] x6 | x6 | x6 |[M:15/16] x15/2 |[M:3/4] x6 | x6 | %40
 x6 |[M:15/16] x15/2 |[M:3/4] x6 | x6 | x6 |[M:15/16] x15/2 |[M:3/4] x6 | x6 |] %48

